public/assets/icons/twitch.svg

<svg xmlns="http://www.w3.org/2000/svg" width="24" height="24" fill="none" viewBox="0 0 24 24"><path fill="#fff" d="M11.6416 5.92951H13.0716V10.2095H11.6416M15.5716 5.92951H17.0016V10.2095H15.5716M7.00164 1.99951L3.43164 5.56951V18.4295H7.71164V21.9995L11.2916 18.4295H14.1416L20.5716 11.9995V1.99951M19.1416 11.2895L16.2916 14.1395H13.4316L10.9316 16.6395V14.1395H7.71164V3.42951H19.1416V11.2895Z"/></svg>

<svg fill="none" viewBox="0 0 24 24"><path fill="#fff" d="M11.642 5.93h1.43v4.28h-1.43m3.93-4.28h1.43v4.28h-1.43M7.002 2l-3.57 3.57v12.86h4.28V22l3.58-3.57h2.85l6.43-6.43V2m-1.43 9.29l-2.85 2.85h-2.86l-2.5 2.5v-2.5h-3.22V3.43h11.43v7.86z"/></svg>
